!!!!SEGMENT: d-b--slg-bohn-ms-mus-111--001-016_jarzebski-adam--canzoni-e-concerti-16-sentinella.krn
!!!cenid: 16xx:1789
!!!COM: Jarzębski, Adam
!!!COM-rismID: pe30017782
!!!CDT: 1590-1648
!!!CNT: Polish
!!!GTL: Canzoni e Concerti
!!!OTL: 16. Sentinella
!!!OMV: 016
!!!PDT: 1627
!!!AGN:
!!!YEC: Copyright 2022 Narodowy Instytut Fryderyka Chopina (https://polishscores.org)
!!!YEM: License CC-BY-4.0 (https://creativecommons.org/licenses/by/4.0)
!!!SMS-siglum: D-B
!!!SMS-shelfmark: Slg Bohn Ms.mus. 111
!!!SMS-shelfwork: 001-016 G
!!!SMS-variant:
!!!SMS-altvar:
!!!NIFC-rismSourceID: 1001062014
!!!NIFC-rismChildID: 1001062014
!!!NIFC-islandoraID: none
!!!URL-pdf-islandora:
!!!URL-scan: https://digital.staatsbibliothek-berlin.de/werkansicht/?PPN=PPN1049147219 @EN{Scan on Staatsbibliothek zu Berlin Website} @PL{Skany w portalu Staatsbibliothek zu Berlin}
!!!IIIF:
!!!ONB-nifc: UWAGA: Prima vox: s. 28-29, Seconda vox: s. 88-89, Bassus sive Vox Tertia: s. 126-127, Basso continuo: s. 175. Uwaga: proszę wpisywać partie tylko występujące w danym koncercie i nazywać partie wg określeń podawanych przy danym utworze. Kody instr. dla humdrumowców podane zostaną na forum.
!!!AIN: 2 soprn 1 vox
!!!key: a
**kern	**kern	**kern	**kern
*part4	*part3	*part2	*part1
*staff4	*staff3	*staff2	*staff1
*I"Baſso Continúo.	*I"Tertia Vox	*I"Canto.	*I"Canto.
*mI"Basso continuo	*mI"Terzo voce	*mI"Soprano II	*mI"Soprano I
*I'bc	*I'V 3	*I'S 2	*I'S 1
*	*ICvox	*ICvox	*ICvox
*	*Ivox	*Isoprn	*Isoprn
*IGcont	*	*	*
*clefF4	*clefG2	*clefG2	*clefG2
*k[]	*k[]	*k[]	*k[]
*a:	*a:	*a:	*a:
*M2/2	*M2/2	*M2/2	*M2/2
*met(C|)	*met(C|)	*met(C|)	*met(C|)
*mmet(c|)	*mmet(c|)	*mmet(c|)	*mmet(c|)
=1-	=1-	=1-	=1-
!!LO:TX:t=P:problem: all\right or middle	!	!	!
!LO:TX:a:t=Concerto á 3. Soprani.:mod=	!LO:TX:b:t=Sentinella.:mod=	!	!
1A	0r	1r	1a
=2-	=2-	=2-	=2-
*2\right	*	*	*2\right
2A\	.	1a	2.cc\
!LO:TX:t=P:problem:kreska pseudotaktowa	!	!	!
2A\	.	.	.
.	.	.	4dd\
=3-	=3-	=3-	=3-
*	*	*2\right	*
0A	1a	2.cc\	1ee
.	.	4dd\	.
=4-	=4-	=4-	=4-
*	*2\right	*	*
.	2.cc\	1ee	2r
.	.	.	2a/
.	4dd\	.	.
=5-	=5-	=5-	=5-
0A	2ee\	4r	[2cc\
.	.	4a/	.
!	!	!LO:TX:t=P:problem:kreska pseudotaktowa	!
.	4r	[2cc\	8cc\L]
.	.	.	8a\
.	4a/	.	8cc\
!	!	!	!LO:TX:t=P:problem:kreska pseudotaktowa
.	.	.	8dd\J
=6-	=6-	=6-	=6-
.	[2cc\	8cc\L]	4ee\
.	.	8a\	.
.	.	8cc\	4a/
.	.	8dd\J	.
!	!	!LO:TX:t=P:problem:kreska pseudotaktowa	!
.	8cc\L]	2ee\	4cc\
.	8a\	.	.
.	8cc\	.	8a/L
!	!LO:TX:t=P:problem:kreska pseudotaktowa	!	!LO:TX:t=P:problem:kreska pseudotaktowa
.	8dd\J	.	8b/J
=7-	=7-	=7-	=7-
!LO:TX:t=P:problem:kreska pseudotaktowa	!	!	!
0A	2ee\	8r	8cc\L
.	.	8g#X/L	8b\
.	.	8a/	8cc\
.	.	8b/J	8dd\J
!	!	!	!LO:TX:t=P:problem:kreska pseudotaktowa
.	8r	8cc\L	2ee\
!	!LO:TX:a:t=P:problem:# below	!	!
.	8g#X/L	8b\	.
.	8a/	8cc\	.
!	!	!LO:TX:t=P:problem:kreska pseudotaktowa	!
.	8b/J	8dd\J	.
*	*	*	*custos:g#
!	!	!	!LO:LB:g=original
=8-	=8-	=8-	=8-
.	8cc\L	2ee\	8r
!	!	!	!LO:TX:a:t=P:problem:# above
.	8b\	.	8g#X/L
.	8cc\	.	8a/
.	8dd\J	.	8b/J
!	!LO:TX:t=P:problem:kreska pseudotaktowa	!	!
.	2ee\	8r	8cc\L
.	.	8g#X/L	8b\
.	.	8a/	8cc\
!	!	!LO:TX:t=P:problem:kreska pseudotaktowa	!
!	!	!	!LO:TX:t=P:problem:kreska pseudotaktowa
.	.	8b/J	8dd\J
*	*	*custos:cc	*
!	!	!LO:LB:g=original	!
=9-	=9-	=9-	=9-
1A	8r	8cc\L	2ee\
!	!LO:TX:a:t=P:problem:# above	!	!
.	8g#X/L	8b\	.
.	8a/	8cc\	.
.	8b/J	8dd\J	.
!	!	!LO:TX:t=P:problem:kreska pseudotaktowa	!
.	8cc\L	2ee\	8r
.	8b\	.	8dd\L
.	8cc\	.	8ee\
!	!	!	!LO:TX:t=P:problem:kreska pseudotaktowa
.	8dd\J	.	8ff\J
=10-	=10-	=10-	=10-
!	!LO:TX:t=P:problem:kreska pseudotaktowa	!	!
0E	1ee	8r	8gg#X\L
!	!	!	!LO:TX:a:t=P:problem:# above
.	.	8dd\L	8ff#X\
!	!	!	!LO:TX:a:t=P:problem:# above
.	.	8ee\	8gg#X\
!	!	!LO:TX:a:t=P:problem:# above	!
.	.	8ff#X\J	8aa\J
.	.	8gg#X\L	8bb\L
!	!	!LO:TX:a:t=P:problem:# above	!
.	.	8ff#X\	8dd\
!	!	!LO:TX:a:t=P:problem:# above	!
.	.	8gg#X\	8ee\
!	!	!	!LO:TX:t=P:problem:kreska pseudotaktowa
!	!	!	!LO:TX:a:t=P:problem:# above
.	.	8aa\J	8ff#X\J
!	!	!LO:MO:mod=*null	!
*	*	*clefG1	*
=11-	=11-	=11-	=11-
!	!	!	!LO:TX:t=P:problem:mixed beam
.	8r	4bb\	8.gg#X\L
.	8ee\	.	.
.	.	.	16b/Jk
.	8.cc\L	4ccc\	16cc\LL
.	.	.	16dd\
.	.	.	16ee\
!	!	!	!LO:TX:a:t=P:problem:# above
.	16dd\Jk	.	16ff#X\JJ
!	!	!LO:TX:t=P:problem:kreska pseudotaktowa	!
.	4ee\	2bb\	16gg#X\LL
.	.	.	16aa\
.	.	.	16bb\
.	.	.	16ee\JJ
.	4e/	.	32ff#X\LLL
.	.	.	32gg#X\
.	.	.	32aa\
!	!	!	!LO:TX:a:t=P:problem:# above
.	.	.	32gg#X\JJJ
.	.	.	32aa\LLL
!	!	!	!LO:TX:a:t=P:problem:# above
.	.	.	32gg#X\
!	!	!	!LO:TX:a:t=P:problem:# above
.	.	.	32ff#X\
!	!	!	!LO:TX:a:t=P:problem:# above
.	.	.	32gg#X\JJJ
*	*custos:a	*	*
!	!LO:LB:g=original	!	!
=12-	=12-	=12-	=12-
2AA/	2a/	8aa\L	2aa\
.	.	8cc\	.
.	.	8ee\	.
!	!	!LO:TX:a:t=P:problem:# above	!
.	.	8ff#X\J	.
!	!	!LO:TX:t=P:problem:mixed beam	!
1E	8r	8.gg#X\L	2r
.	8ee\	.	.
.	.	16b\Jk	.
.	8.cc\L	16cc/LL	.
.	.	16dd/	.
.	.	16ee/	.
!	!	!LO:TX:t=P:problem:kreska pseudotaktowa	!
!	!LO:TX:t=P:problem:kreska pseudotaktowa	!LO:TX:a:t=P:problem:# below	!
.	16dd\Jk	16ff#X/JJ	.
*	*	*	*cutos:ee
!	!	!	!LO:LB:g=original
=13-	=13-	=13-	=13-
.	4ee\	16gg#X\LL	1r
.	.	16aa\	.
.	.	16bb\	.
.	.	16ee\JJ	.
!	!	!LO:SIC:v:o=32ffny\LLL	!
.	4e/	32ff#LLL	.
!	!	!LO:TX:a:t=P:problem:# above	!
.	.	32gg#X\	.
.	.	32aa\	.
!	!	!LO:TX:a:t=P:problem:# above	!
.	.	32gg#X\JJJ	.
*	*	*custos:aa	*
!	!	!LO:LB:g=original	!
.	.	32aa\LLL	.
!	!	!LO:TX:a:t=P:problem:# above	!
.	.	32gg#X\	.
!	!	!LO:TX:a:t=P:problem:# above	!
.	.	32ff#X\	.
!	!	!LO:TX:a:t=P:problem:# above	!
.	.	32gg#X\JJJ	.
2AA/	8a\L	2aa\	.
.	16cc\L	.	.
.	16dd\JJ	.	.
.	8ee\L	.	.
!	!LO:TX:t=P:problem:kreska pseudotaktowa	!	!
!	!LO:TX:a:t=P:problem:# above	!	!
.	8ff#X\J	.	.
!	!	!LO:MO:mod=*null	!
*	*	*clefG2	*
=14-	=14-	=14-	=14-
!LO:TX:t=P:problem:kreska pseudotaktowa	!LO:SIC:v:o=8.gg\L	!	!
1E	8.gg#L	1r	8r
!	!	!	!LO:SIC:o=8ee\L
.	.	.	8ee
.	16b\Jk	.	.
!	!	!	!LO:SIC:o=8.cc\
.	16cc\LL	.	8.ccL
.	16dd\	.	.
.	16ee\	.	.
!	!LO:TX:a:t=P:problem:# above	!	!
.	16ff#X\JJ	.	16dd\Jk
!	!LO:TX:a:t=P:problem:# above	!	!
.	16gg#X\LL	.	4ee\
.	16aa\	.	.
.	16bb\	.	.
.	16ee\JJ	.	.
.	32ff#X\LLL	.	4e/
.	32gg#X\	.	.
.	32aa\	.	.
!	!LO:TX:b:t=P:problem:# below	!	!
!	!LO:SIC:o=32gg#X\	!	!
.	32gg#JJJ	.	.
!	!LO:SIC:o=32aa\	!	!
.	32aaLLL	.	.
!	!LO:TX:b:t=P:problem:# below	!	!
.	32gg#X\	.	.
!	!LO:TX:a:t=P:problem:# above	!	!
.	32ff#X\	.	.
!	!LO:TX:t=P:problem:kreska pseudotaktowa	!	!
!	!LO:TX:a:t=P:problem:# above	!	!
.	32gg#X\JJJ	.	.
=15-	=15-	=15-	=15-
0AA	2aa\	8r	1a
.	.	8ee\	.
.	.	8.cc\L	.
.	.	16dd\Jk	.
.	2r	4ee\	.
!	!	!LO:TX:t=P:problem:kreska pseudotaktowa	!
.	.	4a/	.
=16-	=16-	=16-	=16-
.	0r	1r	2r
.	.	.	2aa\
=17-	=17-	=17-	=17-
1AA	.	2r	2aa\
.	.	4r	2aa\
!	!	!LO:TX:t=P:problem:kreska pseudotaktowa	!
.	.	4aa\	.
*	*custos:dd	*	*
!	!LO:PB:g=original	!	!
=18-	=18-	=18-	=18-
0D	2r	4aa\	4ff#X\
.	.	8ff#X\L	8dd\L
!	!	!LO:SIC:o=8ggny\	!
.	.	8ggJ	8ee\J
!	!	!LO:SIC:o=8aa\	!LO:TX:a:t=P:problem:# above
.	2dd\	8aaL	8ff#X\L
!	!	!LO:SIC:o=8bb\J	!
.	.	8bb	8ggny\
!	!	!LO:SIC:o=8ff#X\L	!
.	.	8ff#	8aa\
!	!	!LO:TX:t=P:problem:kreska pseudotaktowa	!LO:TX:t=P:problem:kreska pseudotaktowa
.	.	8gg\J	8bb\J
=19-	=19-	=19-	=19-
.	2dd\	8.ff#X\L	8.aa\L
.	.	16gg\Jk	16bb\Jk
.	.	8.ff#\L	8.aa\L
.	.	16gg\Jk	16bb\Jk
.	2dd\	8ff#X\	2aa\
.	.	4gg\	.
!	!	!LO:TX:t=P:problem:kreska pseudotaktowa	!
.	.	8ff#X\	.
*	*	*custos:gg	*
!	!	!LO:LB:g=original	!
=20-	=20-	=20-	=20-
0GG	4b/	4gg\	1gg
.	8gny/L	8b\L	.
.	8a/J	8cc\J	.
.	8b\L	8dd\L	.
.	8cc\	8ee\	.
.	8dd\	8b\	.
!	!LO:TX:t=P:problem:kreska pseudotaktowa	!LO:TX:t=P:problem:kreska pseudotaktowa	!
.	8ee\J	8cc\J	.
=21-	=21-	=21-	=21-
.	8.dd\L	8.b\L	4r
.	16ee\Jk	16cc\Jk	.
.	8.dd\L	8.b\L	4gg\
.	16ee\Jk	16cc\Jk	.
.	8dd\L	8b/	4gg\
.	8ee\J	4cc\	.
!	!	!	!LO:TX:t=P:problem:kreska pseudotaktowa
.	4dd\	.	4gg\
!	!	!LO:TX:t=P:problem:kreska pseudotaktowa	!
.	.	8b/	.
=22-	=22-	=22-	=22-
0C	4cc\	1cc	4ee\
.	8ee\L	.	8cc\L
.	8ffny\J	.	8dd\J
.	8ggny\L	.	8ee\L
!	!LO:SIC:o=8aa\J	!	!
.	8aa	.	8ffny\
!	!LO:SIC:o=8ee\L	!	!
.	8ee	.	8gg\
!	!LO:TX:t=P:problem:kreska pseudotaktowa	!	!
.	8ff\J	.	8aa\J
*	*	*	*custos:gg
!	!	!	!LO:LB:g=original
=23-	=23-	=23-	=23-
!LO:TX:t=P:problem:kreska pseudotaktowa	!	!	!
.	8.ee\L	4r	8.gg\L
.	16ff\Jk	.	16aa\Jk
.	8.ee\L	4cc\	8.gg\L
.	16ff\Jk	.	16aa\Jk
!	!	!	!LO:TX:t=P:problem:kreska pseudotaktowa
.	8ee\	4cc\	2gg\
.	4ff\	.	.
!	!	!LO:TX:t=P:problem:kreska pseudotaktowa	!
.	.	4cc\	.
!	!LO:TX:t=P:problem:kreska pseudotaktowa	!	!
.	8ee\	.	.
*custos:F	*custos:ff	*	*
!LO:LB:g=original	!LO:LB:g=original	!	!
=24-	=24-	=24-	=24-
2F\	2ff\	2f/	4ff\
.	.	.	8.aa\L
.	.	.	16aa\Jk
4C/	2r	4r	8.gg\L
.	.	.	16gg\Jk
4F\	.	8.aa\L	8.ff\L
!	!	!LO:TX:t=P:problem:kreska pseudotaktowa	!LO:TX:t=P:problem:kreska pseudotaktowa
.	.	16aa\Jk	16ff\Jk
=25-	=25-	=25-	=25-
4C/	4r	8.gg\L	4ee\
.	.	16gg\Jk	.
4F\	8.aa\L	8.ffny\L	4r
.	16aa\Jk	16ff\Jk	.
4C/	8.gg\L	4ee\	4r
.	16gg\Jk	.	.
!	!	!LO:TX:t=P:problem:kreska pseudotaktowa	!
!LO:TX:t=P:problem:kreska pseudotaktowa	!	!	!
4F\	8.ff\L	4r	8.aa\L
!	!LO:TX:t=P:problem:kreska pseudotaktowa	!	!LO:TX:t=P:problem:kreska pseudotaktowa
.	16ff\Jk	.	16aa\Jk
*	*	*custos:aa	*
!	!	!LO:LB:g=original	!
=26-	=26-	=26-	=26-
4C/	4ee\	4r	8.gg\L
.	.	.	16gg\Jk
4F\	4r	8.aa\L	8.ff\L
.	.	16aa\Jk	16ff\Jk
4C/	4r	8.gg\L	4ee\
.	.	16gg\Jk	.
!	!	!	!LO:TX:t=P:problem:kreska pseudotaktowa
4F\	8.aa\L	8.ff\L	4r
!	!LO:TX:t=P:problem:kreska pseudotaktowa	!LO:TX:t=P:problem:kreska pseudotaktowa	!
.	16aa\Jk	16ff\Jk	.
=27-	=27-	=27-	=27-
4C/	8.gg\L	4ee\	4r
.	16gg\Jk	.	.
4F\	8.ff\L	4r	8.aa\L
.	16ff\Jk	.	16aa\Jk
4C/	4ee\	4r	8.gg\L
.	.	.	16gg\Jk
!LO:TX:t=P:problem:kreska pseudotaktowa	!LO:TX:t=P:problem:kreska pseudotaktowa	!	!
4F\	4r	8.aa\L	8.ff\L
!	!	!LO:TX:t=P:problem:kreska pseudotaktowa	!
.	.	16aa\Jk	16ff\Jk
*	*	*	*custos:ee
!	!	!	!LO:LB:g=original
=28-	=28-	=28-	=28-
4C/	4r	8.gg\L	4ee\
.	.	16gg\Jk	.
4F\	8.aa\L	8.ff\L	4r
.	16aa\Jk	16ff\Jk	.
2C/	8.gg\L	4ee\	4r
.	16gg\Jk	.	.
!	!	!LO:TX:t=P:problem:kreska pseudotaktowa	!
.	8.ee\L	4r	8.gg\L
!	!	!	!LO:TX:t=P:problem:kreska pseudotaktowa
.	16ee\Jk	.	16gg\Jk
=29-	=29-	=29-	=29-
4D/	4dd\	4r	8.ff\L
.	.	.	16ff\Jk
4C/	4r	8.gg\L	8.ee\L
.	.	16gg\Jk	16ee\Jk
*	*custos:gg	*	*
!	!LO:LB:g=original	!	!
4D/	4r	8.ff\L	4dd\
.	.	16ff\Jk	.
!LO:TX:t=P:problem:kreska pseudotaktowa	!	!	!LO:TX:t=P:problem:kreska pseudotaktowa
4C/	8.gg\L	8.ee\L	4r
!	!LO:TX:t=P:problem:kreska pseudotaktowa	!	!
.	16gg\Jk	16ee\Jk	.
=30-	=30-	=30-	=30-
4D/	8.ff\L	4dd\	4r
.	16ff\Jk	.	.
4C/	8.ee\L	4r	8.gg\L
.	16ee\Jk	.	16gg\Jk
*	*	*custos:gg	*
!	!	!LO:LB:g=original	!
4D/	4dd\	4r	8.ff\L
.	.	.	16ff\Jk
!	!LO:TX:t=P:problem:kreska pseudotaktowa	!	!
4C/	4r	8.gg\L	8.ee\L
!	!	!LO:TX:t=P:problem:kreska pseudotaktowa	!LO:TX:t=P:problem:kreska pseudotaktowa
.	.	16gg\Jk	16ee\Jk
=31-	=31-	=31-	=31-
4D/	4r	8.ff\L	4dd\
.	.	16ff\Jk	.
4C/	8.gg\L	8.ee\L	4r
.	16gg\Jk	16ee\Jk	.
4D/	8.ff\L	4dd\	4r
.	16ff\Jk	.	.
!LO:TX:t=P:problem:kreska pseudotaktowa	!	!LO:TX:t=P:problem:kreska pseudotaktowa	!
4C/	8.ee\L	4r	8.cc\L
!	!	!	!LO:TX:t=P:problem:kreska pseudotaktowa
.	16ee\Jk	.	16cc\Jk
=32-	=32-	=32-	=32-
4GG/	4dd\	4r	4b/
4C/	4r	8.cc\L	8.ee\L
.	.	16cc\Jk	16ee\Jk
!	!LO:TX:t=P:problem:kreska pseudotaktowa	!	!
4GG/	2r	4b/	8.dd\L
.	.	.	16dd\Jk
*	*	*	*custos:cc
!	!	!	!LO:LB:g=original
4C/	.	8.ee\L	8.cc\L
!	!	!LO:TX:t=P:problem:kreska pseudotaktowa	!
.	.	16ee\Jk	16cc\Jk
=33-	=33-	=33-	=33-
4GG/	4r	8.dd\L	4b/
.	.	16dd\Jk	.
4C/	8.ee\L	8.cc\L	4r
.	16ee\Jk	16cc\Jk	.
4GG/	8.dd\L	4b/	4r
.	16dd\Jk	.	.
!LO:TX:t=P:problem:kreska pseudotaktowa	!	!	!
!	!	!LO:TX:t=P:problem:kreska pseudotaktowa	!
4C/	8.cc\L	4r	8.ee\L
!	!LO:TX:t=P:problem:kreska pseudotaktowa	!	!LO:TX:t=P:problem:kreska pseudotaktowa
.	16cc\Jk	.	16ee\Jk
*custos:GG	*	*	*
!LO:LB:g=original	!	!	!
=34-	=34-	=34-	=34-
4GG/	4b/	4r	8.dd\L
.	.	.	16dd\Jk
4C/	4r	8.ee\L	8.cc\L
.	.	16ee\Jk	16cc\Jk
4GG/	4r	8.dd\L	4b/
.	.	16dd\Jk	.
!	!	!	!LO:TX:t=P:problem:kreska pseudotaktowa
4C/	8.ee\L	8.cc\L	4r
!	!	!LO:TX:t=P:problem:kreska pseudotaktowa	!
!	!LO:TX:t=P:problem:kreska pseudotaktowa	!	!
.	16ee\Jk	16cc\Jk	.
*	*	*custos:b	*
!	!	!LO:LB:g=original	!
=35-	=35-	=35-	=35-
4GG/	8.dd\L	4b/	4r
.	16dd\Jk	.	.
4C/	8.cc\L	4r	8.ee\L
.	16cc\Jk	.	16ee\Jk
4GG/	4b/	4r	8.dd\L
.	.	.	16dd\Jk
!LO:TX:t=P:problem:kreska pseudotaktowa	!LO:TX:t=P:problem:kreska pseudotaktowa	!	!
4AA/	4r	8.a/L	8.cc\L
!	!	!LO:TX:t=P:problem:kreska pseudotaktowa	!LO:TX:t=P:problem:kreska pseudotaktowa
.	.	16a/Jk	16cc\Jk
=36-	=36-	=36-	=36-
4E\	4r	8.g#X/L	4b/
.	.	16g#/Jk	.
4AA/	8.cc\L	8.a/L	4r
.	16cc\Jk	16a/Jk	.
4E\	8.b/L	8.ee\L	4r
.	16b/Jk	16ee\Jk	.
!	!	!LO:TX:t=P:problem:kreska pseudotaktowa	!
4AA/	8.a/L	4aa\	8.cc\L
!	!LO:TX:t=P:problem:kreska pseudotaktowa	!	!LO:TX:t=P:problem:kreska pseudotaktowa
.	16a/Jk	.	16cc\Jk
=37-	=37-	=37-	=37-
4E\	4g#X/	4r	8.b/L
.	.	.	16b/Jk
4AA/	4r	8.cc\L	8.a/L
.	.	16cc\Jk	16a/Jk
!	!	!	!LO:TX:b:t=P:problem:# below
4E\	4r	8.b/L	4g#X/
.	.	16b/Jk	.
!LO:TX:t=P:problem:kreska pseudotaktowa	!	!	!
4AA/	8.cc\L	8.a/L	4r
!	!LO:TX:t=P:problem:kreska pseudotaktowa	!	!
.	16cc\Jk	16a/Jk	.
*	*	*	*custos:cc
!	!	!	!LO:LB:g=original
=38-	=38-	=38-	=38-
4E\	8.b/L	4g#X/	4r
.	16b/Jk	.	.
4AA/	8.a/L	4r	8.cc\L
.	16a/Jk	.	16cc\Jk
4E\	4g#X/	4r	8.b/L
.	.	.	16b/Jk
!	!LO:TX:t=P:problem:kreska pseudotaktowa	!	!
4AA/	4r	8.cc\L	8.a/L
!	!	!LO:TX:t=P:problem:kreska pseudotaktowa	!LO:TX:t=P:problem:kreska pseudotaktowa
.	.	16cc\Jk	16a/Jk
=39-	=39-	=39-	=39-
2E\	2r	4b/	2g#X/
.	.	4b/	.
!LO:TX:t=P:problem:kreska pseudotaktowa	!	!	!LO:TX:t=P:problem:kreska pseudotaktowa
2AA/	4r	1a	2r
.	8.cc\L	.	.
.	16cc\Jk	.	.
*	*custos:b	*	*
!	!LO:LB:g=original	!	!
=40-	=40-	=40-	=40-
1E	2b/	.	2r
.	2b/	2g#X/	8.ee\L
.	.	.	16ee\Jk
.	.	.	8.dd\L
.	.	.	16dd\Jk
*	*	*custos:a	*
!	!	!LO:LB:g=original	!
=41-	=41-	=41-	=41-
!LO:TX:t=P:problem:kreska pseudotaktowa	!	!	!
1AA	1a	1a	1cc#X
=-	=-	=-	=-
*M3/2	*M3/2	*M3/2	*M3/2
*met(3)	*met(3)	*met(3)	*met(3)
2A\	0.r	1.r	2ee\
2A\	.	.	2ee\
2D/	.	.	2ff\
*custos:A	*	*	*
!LO:LB:g=original	!	!	!
=42-	=42-	=42-	=42-
2A\	.	2ee\	1ee
2A\	.	2ee\	.
!LO:TX:t=P:problem:kreska pseudotaktowa	!	!	!
2D/	.	2ff\	2r
=43-	=43-	=43-	=43-
!	!	!	!LO:TX:t=P:problem: VHV nie wy[wietla pauzy
2A\	2ee\	1ee	1.r
2A\	2ee\	.	.
2D/	2ff\	2r	.
=44-	=44-	=44-	=44-
!	!	!LO:TX:t=P:problem: VHV nie wy[wietla pauzy	!
2A\	1ee	1.r	4a/
.	.	.	4b/
2A\	.	.	4ccny\
.	.	.	4dd\
!LO:TX:t=P:problem:kreska pseudotaktowa	!	!	!
2E\	2r	.	4b/
.	.	.	4cc\
*	*	*	*custos:a
!	!	!	!LO:LB:g=original
=45-	=45-	=45-	=45-
!	!LO:TX:t=P:problem: VHV nie wy[wietla pauzy	!	!
2AA/	1.r	4a/	1a
.	.	4b/	.
2AA/	.	4cc\	.
.	.	4dd\	.
2E\	.	4b/	2r
!	!	!LO:TX:t=P:problem:kreska pseudotaktowa	!
.	.	4cc\	.
=46-	=46-	=46-	=46-
!	!	!	!LO:TX:t=P:problem: VHV nie wy[wietla pauzy
1AA	4a/	1a	1.r
.	4b/	.	.
.	4cc\	.	.
.	4dd\	.	.
!LO:TX:t=P:problem:kreska pseudotaktowa	!	!	!
2E\	4b/	2r	.
.	4cc\	.	.
=47-	=47-	=47-	=47-
2A\	1a	1.r	2ee\
2A\	.	.	2ee\
2D/	2r	.	2ff\
=48-	=48-	=48-	=48-
!	!LO:TX:t=P:problem: VHV nie wy[wietla pauzy	!	!
2A\	1.r	2ee\	1ee
2A\	.	2ee\	.
!LO:TX:t=P:problem:kreska pseudotaktowa	!	!	!
2D/	.	2ff\	2r
=49-	=49-	=49-	=49-
!	!	!	!LO:TX:t=P:problem: VHV nie wy[wietla pauzy
2A\	2ee\	1ee	1.r
2A\	2ee\	.	.
2D/	2ff\	2r	.
=50-	=50-	=50-	=50-
!	!	!LO:TX:t=P:problem: VHV nie wy[wietla pauzy	!
1A	1ee	1.r	4a/
.	.	.	4b/
.	.	.	4cc\
.	.	.	4dd\
!LO:TX:t=P:problem:kreska pseudotaktowa	!	!	!
2A\	2r	.	4ee\
.	.	.	4ff\
*custos:AA	*	*	*
!LO:LB:g=original	!	!	!
=51-	=51-	=51-	=51-
!	!LO:TX:t=P:problem: VHV nie wy[wietla pauzy	!	!
2AA/	1.r	4a/	1ee
.	.	4b/	.
2AA/	.	4cc\	.
.	.	4dd\	.
2AA/	.	4ee\	2r
.	.	4ff\	.
=52-	=52-	=52-	=52-
!	!	!	!LO:TX:t=P:problem: VHV nie wy[wietla pauzy
1AA	4a/	1ee	1.r
.	4b/	.	.
.	4cc\	.	.
.	4dd\	.	.
!LO:TX:t=P:problem:kreska pseudotaktowa	!	!	!
2AA/	4ee\	2r	.
.	4ff\	.	.
=53-	=53-	=53-	=53-
!	!	!	!LO:TX:t=P:problem:ledwo widoczne wpisane zmiany metrum w pozostaBych gBosach poza basso continuo
1E	1ee	0.r	8ee\L
!	!	!	!LO:TX:a:t=P:problem:# above
.	.	.	8ff#X\
!	!	!	!LO:TX:a:t=P:problem:# above
.	.	.	8gg#X\
.	.	.	8aa\J
.	.	.	8bb\L
.	.	.	8ee\
!	!	!	!LO:TX:a:t=P:problem:# above
.	.	.	8ff#X\
!	!	!	!LO:TX:a:t=P:problem:# above
.	.	.	8gg#X\J
2E\	2r	.	16aa\LL
!	!	!	!LO:TX:a:t=P:problem:# above
.	.	.	16gg#X\
.	.	.	16aa\
!	!	!	!LO:TX:a:t=P:problem:# above
.	.	.	16gg#X\
.	.	.	16aa\
!	!	!	!LO:TX:a:t=P:problem:# above
.	.	.	16gg#X\
.	.	.	16ff#\
!	!	!	!LO:TX:a:t=P:problem:# above
.	.	.	16gg#X\JJ
*	*	*	*custos:aa
!	!	!	!LO:LB:g=original
=54-	=54-	=54-	=54-
2AA/	8a/L	.	1aa
.	8b/	.	.
!	!LO:TX:b:t=P:problem:# below	!	!
.	8cc#X/	.	.
.	8dd/J	.	.
*	*custos:ee	*	*
!	!LO:LB:g=original	!	!
!	!LO:TX:t=P:problem:mixed beam	!	!
2AA/	8ee\L	.	.
.	8a/	.	.
.	8b/	.	.
!	!LO:TX:b:t=P:problem:# below	!	!
.	8cc#X/J	.	.
!LO:TX:t=P:problem:kreska pseudotaktowa	!	!	!
2AA/	16dd\LL	.	2r
!	!LO:TX:a:t=P:problem:# above	!	!
.	16cc#X\	.	.
.	16dd\	.	.
!	!LO:TX:a:t=P:problem:# above	!	!
.	16cc#X\	.	.
.	16dd\	.	.
!	!LO:TX:a:t=P:problem:# above	!	!
.	16cc#X\	.	.
.	16dd\	.	.
!	!LO:TX:a:t=P:problem:# above	!	!
.	16cc#X\JJ	.	.
*	*	*custos:dd	*
!	!	!LO:LB:g=original	!
=55-	=55-	=55-	=55-
!	!	!	!LO:TX:t=P:problem: VHV nie wy[wietla pauzy
1D	1dd	8dd\L	1.r
.	.	8ee\	.
!	!	!LO:TX:a:t=P:problem:# above	!
.	.	8ff#X\	.
.	.	8gg\J	.
.	.	8aa\L	.
.	.	8gg\	.
.	.	8ee\	.
!	!	!LO:TX:a:t=P:problem:# above	!
.	.	8ff#X\J	.
2D/	2r	16gg\LL	.
!	!	!LO:TX:a:t=P:problem:# above	!
.	.	16ff#X\	.
.	.	16gg\	.
!	!	!LO:TX:a:t=P:problem:# above	!
.	.	16ff#X\	.
.	.	16gg\	.
!	!	!LO:TX:a:t=P:problem:# above	!
.	.	16ff#X\	.
.	.	16gg\	.
!	!	!LO:TX:a:t=P:problem:# above	!
.	.	16ff#X\JJ	.
=56-	=56-	=56-	=56-
!	!LO:TX:t=P:problem: VHV nie wy[wietla pauzy	!	!
1GG	1.r	1gg	8gny/L
.	.	.	8a/
.	.	.	8b/
.	.	.	8cc/J
.	.	.	8dd\L
.	.	.	8cc\
.	.	.	8a\
.	.	.	8b\J
!LO:TX:t=P:problem:kreska pseudotaktowa	!	!	!
2GG/	.	2r	16cc\LL
.	.	.	16b\
.	.	.	16cc\
.	.	.	16b\
.	.	.	16cc\
.	.	.	16b\
.	.	.	16a\
.	.	.	16b\JJ
=57-	=57-	=57-	=57-
!	!	!LO:TX:t=P:problem: VHV nie wy[wietla pauzy	!
1C	8c/L	1.r	1cc
.	8d/	.	.
.	8e/	.	.
.	8f/J	.	.
.	8gny/L	.	.
.	8c/	.	.
.	8d/	.	.
.	8e/J	.	.
2C/	16f/LL	.	2r
.	16e/	.	.
.	16f/	.	.
.	16e/	.	.
.	16f/	.	.
.	16e/	.	.
.	16d/	.	.
.	16e/JJ	.	.
=58-	=58-	=58-	=58-
!	!	!	!LO:TX:t=P:problem: VHV nie wy[wietla pauzy
2F\	2f/	8a/L	1.r
.	.	8b/	.
.	.	8cc/	.
.	.	8dd/J	.
!	!	!LO:TX:t=P:problem:mixed beam	!
2G\	2r	8ee\L	.
.	.	8a/	.
.	.	8b/	.
!	!	!LO:TX:a:t=P:problem:# below	!
.	.	8cc#X/J	.
!LO:TX:t=P:problem:kreska pseudotaktowa	!	!	!
2A\	2r	16dd\LL	.
!	!	!LO:TX:a:t=P:problem:# above	!
.	.	16cc#\	.
.	.	16dd\	.
!	!	!LO:TX:a:t=P:problem:# above	!
.	.	16cc#X\JJ	.
*	*	*custos:dd	*
!	!	!LO:LB:g=original	!
.	.	16dd\LL	.
!	!	!LO:TX:a:t=P:problem:# above	!
.	.	16cc#X\	.
.	.	16b\	.
!	!	!LO:TX:a:t=P:problem:# above	!
.	.	16cc#X\JJ	.
=59-	=59-	=59-	=59-
!	!LO:TX:t=P:problem: VHV nie wy[wietla pauzy	!	!
1D	1.r	1dd	8dd\L
.	.	.	8ee\
!	!	!	!LO:TX:a:t=P:problem:# above
.	.	.	8ff#X\
.	.	.	8ggny\J
.	.	.	8aa\L
.	.	.	8gg\
.	.	.	8ee\
!	!	!	!LO:TX:a:t=P:problem:# above
.	.	.	8ff#X\J
2D/	.	2r	16gg\LL
!	!	!	!LO:TX:a:t=P:problem:# above
.	.	.	16ff#X\
.	.	.	16gg\
!	!	!	!LO:TX:a:t=P:problem:# above
.	.	.	16ff#X\
.	.	.	16gg\
!	!	!	!LO:TX:a:t=P:problem:# above
.	.	.	16ff#X\
.	.	.	16ee\
!	!	!	!LO:TX:a:t=P:problem:# above
.	.	.	16ff#X\JJ
*	*custos:g	*	*custos:gg
!	!LO:LB:g=original	!	!LO:LB:g=original
=60-	=60-	=60-	=60-
1GG	8g/L	0.r	1gg
.	8a/	.	.
.	8b/	.	.
.	8ccny/J	.	.
!	!LO:TX:t=P:problem:mixed beam	!	!
.	8dd\L	.	.
.	8g\	.	.
.	8a\	.	.
.	8b\J	.	.
!LO:TX:t=P:problem:kreska pseudotaktowa	!	!	!
2GG/	16cc\LL	.	2r
.	16b\	.	.
.	16cc\	.	.
.	16b\	.	.
.	16cc\	.	.
.	16b\	.	.
.	16a\	.	.
.	16b\JJ	.	.
*custos:C	*	*	*
!LO:LB:g=original	!	!	!
=61-	=61-	=61-	=61-
2C/	2cc\	.	8ee\L
.	.	.	8ffny\
.	.	.	8gg\
.	.	.	8aa\J
2D/	2r	.	8bb\L
.	.	.	8ee\
!	!	!	!LO:TX:a:t=P:problem:# above
.	.	.	8ff#X\
!	!	!	!LO:TX:b:t=P:problem:# below
.	.	.	8gg#X\J
2E\	2r	.	16aa\LL
!	!	!	!LO:TX:b:t=P:problem:# below
.	.	.	16gg#X\
.	.	.	16aa\
!	!	!	!LO:TX:b:t=P:problem:# below
!	!	!	!LO:SIC:o=16gg#X\JJ
.	.	.	16gg#
!	!	!	!LO:SIC:o=16aa\LL
.	.	.	16aa
!	!	!	!LO:TX:b:t=P:problem:# below
.	.	.	16gg#X\
!	!	!	!LO:TX:b:t=P:problem:# below
.	.	.	16ff#X\
!	!	!	!LO:TX:b:t=P:problem:# below
.	.	.	16gg#X\JJ
=62-	=62-	=62-	=62-
1AA	1.r	8aa\L	1aa
.	.	8gg\	.
.	.	8ffny\	.
.	.	8ee\J	.
.	.	8aa\L	.
.	.	8gg\	.
.	.	8ff\	.
.	.	8ee\J	.
!LO:TX:t=P:problem:kreska pseudotaktowa	!	!	!
2AA/	.	8aa\L	2r
.	.	8gg\	.
.	.	8ff\	.
.	.	8ee\J	.
=63-	=63-	=63-	=63-
!	!	!	!LO:TX:t=P:problem: VHV nie wy[wietla pauzy
1.AA	8aa\L	4cc#X\	1.r
.	8gg\	.	.
.	8ff\	4cc#\	.
.	8ee\J	.	.
.	8aa\L	4cc#\	.
.	8gg\	.	.
.	8ff\	4cc#\	.
.	8ee\J	.	.
.	8aa\L	4cc#\	.
.	8gg\	.	.
.	8ff\	4cc#\	.
!	!LO:TX:t=P:problem:kreska pseudotaktowa	!	!
.	8ee\J	.	.
=64-	=64-	=64-	=64-
1AA	4cc#X\	4a/	8aa\L
.	.	.	8ggny\
.	4cc#\	4a/	8ffny\
.	.	.	8ee\J
.	4cc#\	4a/	8aa\L
.	.	.	8gg\
.	4cc#\	4a/	8ff\
.	.	.	8ee\J
!LO:TX:t=P:problem:kreska pseudotaktowa	!	!LO:TX:t=P:problem:kreska pseudotaktowa	!
2AA/	4cc#\	2a/	8aa\L
.	.	.	8gg\
.	4cc#\	.	8ff\
!	!	!	!LO:TX:t=P:problem:kreska pseudotaktowa
.	.	.	8ee\J
*	*	*	*custos:cc#
!	!	!	!LO:LB:g=original
=65-	=65-	=65-	=65-
!	!	!LO:TX:t=P:problem: VHV nie wy[wietla pauzy	!
1.AA	4a/	1.r	4cc#X\
.	4a/	.	4cc#\
.	4a/	.	4cc#\
.	4a/	.	4cc#\
.	4a/	.	4cc#\
.	4a/	.	4cc#\
*	*	*custos:ee	*
!	!	!LO:LB:g=original	!
=66-	=66-	=66-	=66-
2A\	1a	2ee\	1cc#X
2A\	.	2ee\	.
!LO:TX:t=P:problem:kreska pseudotaktowa	!	!	!
2D/	2r	2ff\	2r
*	*custos:cc#	*	*
!	!LO:LB:g=original	!	!
=67-	=67-	=67-	=67-
2A\	2cc#X\	1ee	2ee\
2A\	2cc#\	.	2ee\
!	!	!LO:TX:t=P:problem:kreska pseudotaktowa	!
2D/	2dd\	2r	2ff\
=68-	=68-	=68-	=68-
1A	1cc#X	4a/	1ee
.	.	4b/	.
!	!	!LO:SIC:o=4ccny\	!
.	.	4cc#	.
.	.	4dd\	.
!LO:TX:t=P:problem:kreska pseudotaktowa	!	!	!
2A\	2r	4ee\	2r
.	.	4ff\	.
=69-	=69-	=69-	=69-
!	!	!	!LO:TX:t=P:problem:kreska pseudotaktowa
!	!	!	!LO:TX:t=P:problem: VHV nie wy[wietla pauzy
2A\	2ee\	1ee	1.r
2A\	2ee\	.	.
2D/	2ff\	2r	.
=70-	=70-	=70-	=70-
1A	1ee	1.r	4a/
.	.	.	4b/
.	.	.	4ccny/
.	.	.	4dd\
!LO:TX:t=P:problem:kreska pseudotaktowa	!	!	!
2A\	2r	.	4ee\
.	.	.	4ff\
*custos:AA	*	*	*
!LO:LB:g=original	!	!	!
=71-	=71-	=71-	=71-
1AA	1.r	4a/	1ee
.	.	4b/	.
.	.	4cc\	.
.	.	4dd\	.
2AA/	.	4ee\	2r
.	.	4ff\	.
=72-	=72-	=72-	=72-
!	!	!	!LO:TX:t=P:problem:kreska pseudotaktowa
!	!	!	!LO:TX:t=P:problem: VHV nie wy[wietla pauzy
1A	4a/	1ee	1.r
.	4b/	.	.
.	4ccny\	.	.
.	4dd\	.	.
!LO:TX:t=P:problem:kreska pseudotaktowa	!	!LO:TX:t=P:problem:kreska pseudotaktowa	!
2A\	4ee\	2r	.
!	!LO:TX:t=P:problem:kreska pseudotaktowa	!	!
.	4ff\	.	.
=73-	=73-	=73-	=73-
2A\	2ee\	2r	16a/LL
.	.	.	16b/
!	!	!	!LO:TX:b:t=P:problem:# below
.	.	.	16cc#X/
.	.	.	16dd/JJ
.	.	.	4ee\
2A\	2r	16a/LL	2r
.	.	16b/	.
!	!	!LO:SIC:v:o=16cc/	!
.	.	16cc#	.
.	.	16dd/JJ	.
.	.	4ee\	.
!	!	!LO:TX:t=P:problem:kreska pseudotaktowa	!LO:TX:t=P:problem:kreska pseudotaktowa
2A\	16a/LL	2r	2r
.	16b/	.	.
!	!LO:SIC:v:o=16cc/	!	!
.	16cc#	.	.
.	16dd/JJ	.	.
!	!LO:TX:t=P:problem:kreska pseudotaktowa	!	!
.	4ee\	.	.
=74-	=74-	=74-	=74-
2D/	2r	2r	16dd\LL
.	.	.	16ee\
!	!	!	!LO:TX:a:t=P:problem:# above
.	.	.	16ff#X\
.	.	.	16gg\JJ
!	!	!	!LO:TX:a:t=P:problem:# above
.	.	.	4ff#X\
2D/	2r	16dd\LL	2r
.	.	16ee\	.
!	!	!LO:TX:a:t=P:problem:# above	!
.	.	16ff#X\	.
.	.	16gg\JJ	.
!	!	!LO:TX:a:t=P:problem:# above	!
.	.	4ff#X\	.
!	!	!	!LO:TX:t=P:problem:kreska pseudotaktowa
!LO:TX:t=P:problem:kreska pseudotaktowa	!	!LO:TX:t=P:problem:kreska pseudotaktowa	!
2D/	16dd\LL	2r	2r
.	16ee\	.	.
!	!LO:TX:a:t=P:problem:# above	!	!
.	16ff#X\	.	.
.	16gg\JJ	.	.
!	!LO:TX:t=P:problem:kreska pseudotaktowa	!	!
!	!LO:TX:a:t=P:problem:# above	!	!
.	4ff#X\	.	.
*	*	*	*custos:g
!	!	!	!LO:LB:g=original
=75-	=75-	=75-	=75-
2G\	2r	2r	16g/LL
.	.	.	16a/
.	.	.	16b/
.	.	.	16ccny/JJ
.	.	.	4b/
2G\	2r	16gny/LL	2r
.	.	16a/	.
.	.	16b/	.
.	.	16cc/JJ	.
.	.	4b/	.
!	!	!LO:TX:t=P:problem:kreska pseudotaktowa	!LO:TX:t=P:problem:kreska pseudotaktowa
2G\	16g/LL	2r	2r
.	16a/	.	.
.	16b/	.	.
.	16cc/JJ	.	.
!	!LO:TX:t=P:problem:kreska pseudotaktowa	!	!
.	4b/	.	.
=76-	=76-	=76-	=76-
2C/	2r	2r	16ee\LL
.	.	.	16ffny\
.	.	.	16gg\
.	.	.	16aa\JJ
.	.	.	4gg\
2C/	2r	16ee\LL	2r
.	.	16ffny\	.
.	.	16gg\	.
.	.	16aa\JJ	.
.	.	4gg\	.
!LO:TX:t=P:problem:kreska pseudotaktowa	!	!LO:TX:t=P:problem:kreska pseudotaktowa	!LO:TX:t=P:problem:kreska pseudotaktowa
2C/	16ee\LL	2r	2r
.	16ffny\	.	.
.	16gg\	.	.
.	16aa\JJ	.	.
!	!LO:TX:t=P:problem:kreska pseudotaktowa	!	!
.	4gg\	.	.
=77-	=77-	=77-	=77-
2G\	2r	2r	16dd\LL
.	.	.	16cc\
.	.	.	16b\
.	.	.	16a\JJ
.	.	.	4b/
2G\	2r	16dd\LL	2r
.	.	16cc\	.
.	.	16b\	.
.	.	16a\JJ	.
.	.	4b/	.
!	!	!LO:TX:t=P:problem:kreska pseudotaktowa	!LO:TX:t=P:problem:kreska pseudotaktowa
2G\	16dd\LL	2r	2r
.	16cc\	.	.
.	16b\	.	.
.	16a\JJ	.	.
!	!LO:TX:t=P:problem:kreska pseudotaktowa	!	!
.	4b/	.	.
*	*custos:dd	*	*
!	!LO:LB:g=original	!	!
=78-	=78-	=78-	=78-
2D/	2r	2r	16dd\LL
.	.	.	16ee\
!	!	!	!LO:TX:a:t=P:problem:# above
.	.	.	16ff#X\
.	.	.	16gg\JJ
.	.	.	4ff#X\
2D/	2r	16dd\LL	2r
.	.	16ee\	.
!	!	!LO:TX:a:t=P:problem:# above	!
.	.	16ff#X\	.
.	.	16gg\JJ	.
!	!	!LO:TX:a:t=P:problem:# above	!
.	.	4ff#X\	.
!LO:TX:t=P:problem:kreska pseudotaktowa	!	!	!
!	!	!LO:TX:t=P:problem:kreska pseudotaktowa	!LO:TX:t=P:problem:kreska pseudotaktowa
2D/	16dd\LL	2r	2r
.	16ee\	.	.
!	!LO:TX:a:t=P:problem:# above	!	!
.	16ff#X\	.	.
.	16gg\JJ	.	.
!	!LO:TX:t=P:problem:kreska pseudotaktowa	!	!
!	!LO:TX:a:t=P:problem:# above	!	!
.	4ff#X\	.	.
*custos:D	*	*	*
!LO:LB:g=original	!	!	!
=79-	=79-	=79-	=79-
1D	2r	2r	16aa\LL
.	.	.	16gg\
!	!	!	!LO:TX:a:t=P:problem:# above
.	.	.	16ff#X\
.	.	.	16ee\JJ
.	.	.	4ff#X\
.	2r	16aa\LL	2r
.	.	16gg\	.
!	!	!LO:SIC:v:o=16ffny\	!
.	.	16ff#	.
.	.	16ee\JJ	.
.	.	4ff#X\	.
!	!	!LO:TX:t=P:problem:kreska pseudotaktowa	!
!	!	!	!LO:TX:t=P:problem:kreska pseudotaktowa
2D/	16aa\LL	2r	2r
.	16gg\	.	.
!	!LO:SIC:v:o=16ffny\	!	!
.	16ff#	.	.
.	16ee\JJ	.	.
!	!LO:TX:t=P:problem:kreska pseudotaktowa	!	!
!	!LO:TX:a:t=P:problem:# above	!	!
.	4ff#X\	.	.
*	*	*custos:bb	*
!	!	!LO:PB:g=original	!
=80-	=80-	=80-	=80-
2E\	2r	2r	16bb\LL
.	.	.	16aa\
!	!	!	!LO:TX:a:t=P:problem:# above
.	.	.	16gg#X\
!	!	!	!LO:TX:a:t=P:problem:# above
.	.	.	16ff#X\JJ
!	!	!	!LO:TX:a:t=P:problem:# above
.	.	.	4gg#X\
2E\	2r	16bb\LL	2r
.	.	16aa\	.
!	!	!LO:TX:a:t=P:problem:# above	!
.	.	16gg#X\	.
!	!	!LO:TX:a:t=P:problem:# above	!
.	.	16ff#X\JJ	.
.	.	4gg#X\	.
!LO:TX:t=P:problem:kreska pseudotaktowa	!	!LO:TX:t=P:problem:kreska pseudotaktowa	!LO:TX:t=P:problem:kreska pseudotaktowa
2E\	16bb\LL	2r	2r
.	16aa\	.	.
!	!LO:TX:a:t=P:problem:# above	!	!
.	16gg#X\	.	.
!	!LO:TX:a:t=P:problem:# above	!	!
.	16ff#X\JJ	.	.
!	!LO:TX:t=P:problem:kreska pseudotaktowa	!	!
!	!LO:TX:a:t=P:problem:# above	!	!
.	4gg#X\	.	.
*	*	*	*custos:ee
!	!	!	!LO:PB:g=original
=81-	=81-	=81-	=81-
1E	2r	2r	16ee\LL
!	!	!	!LO:TX:a:t=P:problem:# above
.	.	.	16ff#X\
!	!	!	!LO:TX:a:t=P:problem:# above
.	.	.	16gg#X\
.	.	.	16aa\JJ
!	!	!	!LO:TX:a:t=P:problem:# above
.	.	.	4gg#X\
.	2r	16ee\LL	2r
!	!	!LO:TX:a:t=P:problem:# above	!
.	.	16ff#X\	.
!	!	!LO:TX:a:t=P:problem:# above	!
.	.	16gg#X\	.
.	.	16aa\JJ	.
!	!	!LO:TX:a:t=P:problem:# above	!
.	.	4gg#X\	.
2E\	16ee\LL	2r	2r
!	!LO:TX:a:t=P:problem:# above	!	!
.	16ff#X\	.	.
!	!LO:TX:a:t=P:problem:# above	!	!
.	16gg#X\	.	.
.	16aa\JJ	.	.
!	!LO:TX:a:t=P:problem:# above	!	!
.	4gg#X\	.	.
=-	=-	=-	=-
*M2/2	*M2/2	*M2/2	*M2/2
*met(C|)	*met(C|)	*met(C|)	*met(C|)
*mmet(c|)	*mmet(c|)	*mmet(c|)	*mmet(c|)
!LO:TX:t=P:problem:kreska pseudotaktowa	!	!	!
1AA	1ee	1cc#X	2aa\
.	.	.	8r
.	.	.	8a/L
.	.	.	8a/
!	!	!	!LO:TX:t=P:problem:kreska pseudotaktowa
.	.	.	8b/J
=82-	=82-	=82-	=82-
2A\	2r	8r	4.cc#X\
.	.	8a/L	.
.	.	8a/	.
.	.	8b/J	8dd\
4A\	8r	4cc#X\	4ee\
.	8a/L	.	.
!	!	!LO:TX:t=P:problem:kreska pseudotaktowa	!
4D/	8a/	4dd\	4ffny\
.	8b/J	.	.
=83-	=83-	=83-	=83-
2A\	4.cc#X\	8r	2ee\
.	.	8a/L	.
.	.	8a/	.
.	8dd\	8b/J	.
4A\	4ee\	4cc#X\	8r
.	.	.	8a/L
!LO:TX:t=P:problem:kreska pseudotaktowa	!	!	!
4D/	4ffny\	4dd\	8a/
!	!	!	!LO:TX:t=P:problem:kreska pseudotaktowa
.	.	.	8a/J
=84-	=84-	=84-	=84-
4A\	4ee\	4a/	4cc#X\
4D/	2dd\	4d/	4ff\
2A\	.	2a/	2ee\
.	4cc#X\	.	.
*	*	*custos:d	*
!	!	!LO:LB:g=original	!
=85-	=85-	=85-	=85-
!	!	!	!LO:TX:t=P:problem:kreska pseudotaktowa
00D/	1dd	2d/	1dd
.	.	4r	.
!	!	!LO:TX:t=P:problem:kreska pseudotaktowa	!
.	.	4dd\	.
=86-	=86-	=86-	=86-
.	2r	4.ffny\	4r
.	.	.	4dd\
.	.	8ggny\	.
.	4r	2aa\	4.ff\
.	4dd\	.	.
.	.	.	8ggny\
=87-	=87-	=87-	=87-
.	4.ff\	4r	2aa\
.	.	4dd\	.
.	8ggny\	.	.
.	2aa\	4.ff\	8r
!	!	!	!LO:SIC:v:o=8ccny\L
.	.	.	8cc#L
.	.	.	8dd\
!	!	!LO:TX:t=P:problem:kreska pseudotaktowa	!
.	.	8gg\	8ee\J
*	*custos:dd	*	*custos:ff
!	!LO:LB:g=original	!	!LO:LB:g=original
=88-	=88-	=88-	=88-
.	4r	2aa\	8ff\L
.	.	.	8ee\
.	4dd\	.	8ff\
.	.	.	8gg\J
.	4.ff\	8r	2aa\
!	!	!LO:TX:a:t=P:problem:# above	!
.	.	8cc#X\L	.
.	.	8dd\	.
!	!	!LO:TX:t=P:problem:kreska pseudotaktowa	!
.	8gg\	8ee\J	.
=89-	=89-	=89-	=89-
!LO:TX:t=P:problem:kreska pseudotaktowa	!	!	!
1D	2aa\	8ff\L	8r
!	!	!	!LO:SIC:v:o=8cc\L
.	.	8ee\	8cc#L
.	.	8ff\	8dd\
.	.	8gg\J	8ee\J
.	2r	8aa\L	8ff\L
!	!	!LO:TX:a:t=P:problem:# above	!
.	.	8cc#X\	8ee\
.	.	8dd\	8ff\
!	!	!LO:TX:t=P:problem:kreska pseudotaktowa	!LO:TX:t=P:problem:kreska pseudotaktowa
.	.	8ee\J	8gg\J
!LO:MO:mod=*null	!	!	!
*clefC4	*	*	*
*custos:d	*	*	*
!LO:LB:g=original	!	!	!
=90-	=90-	=90-	=90-
8d\L	8dd\L	8ff#X\L	8aa\L
8d\J	8dd\J	8ff#\	8aa\
8G/L	8g/L	8gg\	8bb-X\
8G/J	8g/J	8gg\J	8bb-\J
8c\L	8ccny\L	8ee\L	8gg\L
8c\J	8cc\J	8ee\J	8gg\J
!	!	!LO:TX:t=P:problem:kreska pseudotaktowa	!
!	!LO:TX:t=P:problem:kreska pseudotaktowa	!LO:N:acc=-	!LO:TX:t=P:problem:kreska pseudotaktowa
4F/	4f/	4ffn\	4aa\
*	*	*custos:dd	*
!	!	!LO:LB:g=original	!
=91-	=91-	=91-	=91-
8B-X\L	8b-X/L	16dd\LL	16ff\LL
.	.	16ee\	16gg\
8B-\J	8b-/J	16ff\	16aa\
.	.	16dd\JJ	16ff\JJ
8G/L	8g/L	8.ee\L	8.gg\L
8G/J	8g/J	.	.
.	.	16dd\Jk	16ff\Jk
8A/L	8a/L	8cc#X\L	8ee\L
8A/J	8a/J	8cc#\J	8ee\J
!LO:TX:t=P:problem:kreska pseudotaktowa	!LO:TX:t=P:problem:kreska pseudotaktowa	!LO:TX:t=P:problem:kreska pseudotaktowa	!LO:TX:t=P:problem:kreska pseudotaktowa
4D/	4d/	4dd\	4dd\
=92-	=92-	=92-	=92-
8d\L	8ff#X\L	8dd\L	8aa\L
8d\J	8ff#\J	8dd\J	8aa\
8G/L	8gg\L	8g/L	8bb-X\
8G/J	8gg\J	8g/J	8bb-\J
8c\L	8ee\L	8ccny\L	8gg\L
8c\J	8ee\J	8cc\J	8gg\J
!	!LO:TX:t=P:problem:kreska pseudotaktowa	!LO:TX:t=P:problem:kreska pseudotaktowa	!
4F/	4ffny\	4f/	4aa\
*	*	*	*custos:ff
!	!	!	!LO:LB:g=original
=93-	=93-	=93-	=93-
8B-X\L	8dd\L	8b-X/L	8ff\L
8B-\J	8dd\J	8b-/J	8ff\J
8G/L	8.ee\L	8g/L	8.gg\L
8G/J	.	8g/J	.
.	16dd\Jk	.	16ff\Jk
!	!LO:TX:a:t=P:problem:# above	!	!
8A/L	16cc#X\LL	8a/L	16ee\LL
.	16dd\	.	16ff\
8A/J	16ee\	8a/J	16gg\
!	!LO:TX:a:t=P:problem:# above	!	!
.	16cc#X\JJ	.	16ee\JJ
!LO:TX:t=P:problem:kreska pseudotaktowa	!	!LO:TX:t=P:problem:kreska pseudotaktowa	!
4D/	8.dd\L	4d/	8.ff\L
!	!	!	!LO:TX:t=P:problem:kreska pseudotaktowa
.	16cc#\Jk	.	16ee\Jk
!LO:MO:mod=*null	!LO:MO:mod=*null	!	!
*clefF4	*clefC3	*	*
=94-	=94-	=94-	=94-
4G\	8g\L	8b-/L	8dd\L
.	8g\J	8b-/	8dd\
!	!	!	!LO:SIC:v:o=8.ee\
4C/	8c/L	8.cc/	8.ee-
.	8c/J	.	.
.	.	16b-/Jk	16dd\Jk
*custos:F	*	*	*
!LO:LB:g=original	!	!	!
4F\	8f\L	16a/LL	16cc\LL
.	.	16b-/	16dd\
!	!	!	!LO:SIC:v:o=16ee\
.	8f\J	16cc/	16ee-
.	.	16a/JJ	16cc\JJ
*	*custos:B-	*	*
!	!LO:LB:g=original	!	!
4BB-X/	4B-X/	4b-X/	8.dd\L
!	!	!	!LO:TX:t=P:problem:kreska pseudotaktowa
.	.	.	16cc\Jk
*	*	*custos:gg	*
!	!	!LO:LB:g=original	!
=95-	=95-	=95-	=95-
4E-X\	8e-X\L	8gg\L	8b-X/L
.	8e-\J	8gg\	8b-/
4C/	8c/L	8.aa\	8.cc/
.	8c/J	.	.
.	.	16gg\Jk	16b-/Jk
4D/	8d\L	16ff#X\LL	16a/LL
.	.	16gg\	16b-/
.	8d\J	16aa\	16cc/
!	!	!LO:TX:a:t=P:problem:# above	!
.	.	16ff#X\JJ	16a/JJ
!	!	!	!LO:TX:t=P:problem:kreska pseudotaktowa
!LO:TX:t=P:problem:kreska pseudotaktowa	!LO:TX:t=P:problem:kreska pseudotaktowa	!LO:TX:t=P:problem:kreska pseudotaktowa	!LO:N:acc=#
4GG/	4G/	4gg\	4bn/
!	!LO:MO:mod=*null	!	!
*	*clefG2	*	*
=96-	=96-	=96-	=96-
4C/	8ee\L	8cc\L	8gg\L
.	8ee\	8cc\J	8gg\
4FF/	8.ff\	8f/L	8.aa\
.	.	8f/J	.
.	16ee\Jk	.	16gg\Jk
*	*	*	*custos:ff
!	!	!	!LO:LB:g=original
4BB-X/	16dd\LL	8b-X/L	16ff\LL
.	16ee\	.	16gg\
.	16ff\	8b-/J	16aa\
.	16dd\JJ	.	16ff\JJ
!	!	!LO:TX:t=P:problem:kreska pseudotaktowa	!
4GG/	8.ee\L	4g/	8.gg\L
!	!LO:TX:t=P:problem:kreska pseudotaktowa	!	!LO:TX:t=P:problem:kreska pseudotaktowa
.	16dd\Jk	.	16ff\Jk
=97-	=97-	=97-	=97-
4AA/	8ccny\L	8a/L	8ee\L
.	8cc\	8a/J	8ee\
4D/	8.dd\	8d/L	8.ff\
.	.	8d/J	.
.	16cc\Jk	.	16ee\Jk
4GG/	16bny\LL	8g/L	16dd\LL
.	16cc\	.	16ee\
.	16dd\	8g/J	16ff\
.	16b\JJ	.	16dd\JJ
!LO:TX:t=P:problem:kreska pseudotaktowa	!	!LO:TX:t=P:problem:kreska pseudotaktowa	!
4C/	4cc\	4c/	8.ee\L
!	!	!	!LO:TX:t=P:problem:kreska pseudotaktowa
.	.	.	16dd\Jk
!	!LO:MO:mod=*null	!	!
*	*clefC3	*	*
=98-	=98-	=98-	=98-
4F\	8f\L	8aa\L	16cc\LL
.	.	.	16dd\
.	8f\J	8aa\	16ee\
.	.	.	16cc\JJ
4D/	8d\L	8.bb\	8.dd\L
.	8d\J	.	.
.	.	16aa\Jk	16cc\Jk
4Eny\	8eny\L	16gg#X\LL	16b\LL
.	.	16aa\	16cc\
.	8e\J	16bb\	16dd\
!	!	!LO:TX:a:t=P:problem:# above	!
.	.	16gg#X\JJ	16b\JJ
4AA/	8A/L	8aa\L	8cc\L
!	!LO:TX:t=P:problem:kreska pseudotaktowa	!	!LO:TX:t=P:problem:kreska pseudotaktowa
.	8A/J	8aa\J	8cc\J
*	*	*custos:gg#	*
!	!	!LO:LB:g=original	!
=99-	=99-	=99-	=99-
!LO:TX:t=P:problem:kreska pseudotaktowa	!	!	!
1E	1e	8.gg#X\L	2b/
.	.	16aa\Jk	.
.	.	16bb\LL	.
.	.	16ee\	.
!	!	!LO:TX:a:t=P:problem:# above	!
.	.	16ff#X\	.
!	!	!LO:TX:a:t=P:problem:# above	!
.	.	16gg#X\JJ	.
.	.	16aa\LL	2b/
!	!	!LO:TX:a:t=P:problem:# above	!
.	.	16gg#X\	.
.	.	16aa\	.
!	!	!LO:TX:a:t=P:problem:# above	!
!	!	!LO:SIC:v:o=16gg#X\JJ	!
.	.	16gg#	.
!	!	!LO:SIC:v:o=16aa\LL	!
.	.	16aa	.
!	!	!LO:TX:a:t=P:problem:# above	!
.	.	16gg#X\	.
.	.	16ff#\	.
!	!	!LO:TX:a:t=P:problem:# above	!
.	.	16gg#X\JJ	.
=100-	=100-	=100-	=100-
!	!	!LO:TX:t=P:problem:kreska pseudotaktowa	!
0AA	1a	1aa	2a/
.	.	.	4r
.	.	.	4a/
!	!LO:MO:mod=*null	!	!
*	*clefG2	*	*custos:cc
!	!	!	!LO:LB:g=original
=101-	=101-	=101-	=101-
.	2r	4r	4.cc\
.	.	4a/	.
.	.	.	8dd\
!	!	!	!LO:TX:t=P:problem:kreska pseudotaktowa
.	4r	4.cc\	2ee\
.	4a/	.	.
.	.	8dd\	.
=102-	=102-	=102-	=102-
00AA	4.cc\	2ee\	8r
!	!	!	!LO:TX:t=P:problem:uwaga na znaki chromatyczne
!	!	!	!LO:SIC:v:o=8g/L
.	.	.	8g#L
.	.	.	8a/
.	8dd\	.	8b/J
.	2ee\	8r	8cc\L
!	!	!LO:TX:b:t=P:problem:# below	!
.	.	8g#X/L	8b\
.	.	8a/	8cc\
!	!	!LO:TX:t=P:problem:kreska pseudotaktowa	!LO:TX:t=P:problem:kreska pseudotaktowa
.	.	8bny/J	8dd\J
*	*custos:g#	*	*
!	!LO:LB:g=original	!	!
=103-	=103-	=103-	=103-
.	8r	8cc\L	2ee\
!	!LO:TX:a:t=P:problem:# above	!	!
.	8g#X/L	8b\	.
.	8a/	8cc\	.
.	8b/J	8dd\J	.
!	!	!LO:TX:t=P:problem:kreska pseudotaktowa	!
.	8cc\L	2ee\	8r
!	!	!	!LO:SIC:v:o=8g/L
.	8b\	.	8g#L
.	8cc\	.	8a/
!	!LO:TX:t=P:problem:kreska pseudotaktowa	!	!LO:TX:t=P:problem:kreska pseudotaktowa
.	8dd\J	.	8b/J
=104-	=104-	=104-	=104-
.	2ee\	8r	8cc\L
!	!	!LO:TX:b:t=P:problem:# below	!
.	.	8g#X/L	8b\
.	.	8a/	8cc\
.	.	8b/J	8dd\J
*	*	*custos:cc	*
!	!	!LO:LB:g=original	!LO:TX:t=P:problem:kreska pseudotaktowa
.	8r	8cc\L	[2ee\
!	!LO:TX:a:t=P:problem:# above	!	!
.	8g#X/L	8b\	.
.	8a/	8cc\	.
!	!LO:TX:t=P:problem:kreska pseudotaktowa	!LO:TX:t=P:problem:kreska pseudotaktowa	!
.	8b/J	8dd\J	.
=105-	=105-	=105-	=105-
!LO:TX:t=P:problem:kreska pseudotaktowa	!	!	!
.	2cc\	[2ee\	8ee\L]
.	.	.	8ff\
.	.	.	8dd\
.	.	.	8ee\J
.	[2ee\	8ee\L]	8cc\L
.	.	8ffny\	8dd\
.	.	8dd\	8b\
!	!	!LO:TX:t=P:problem:kreska pseudotaktowa	!
.	.	8ee\J	8cc\J
=106-	=106-	=106-	=106-
2.A\	8ee\L]	8cc\L	2a/
.	8ff\	8dd\	.
.	8dd\	8b\	.
.	8ee\J	8cc\J	.
!	!	!	!LO:TX:t=P:problem:kreska pseudotaktowa
!	!	!LO:TX:t=P:problem:kreska pseudotaktowa	!
.	8cc\L	2a/	2aa\
.	8dd\	.	.
4G\	8b\	.	.
!	!LO:TX:t=P:problem:kreska pseudotaktowa	!	!
.	8cc\J	.	.
*custos:F	*	*	*custos:aa
!LO:LB:g=original	!	!	!LO:LB:g=original
=107-	=107-	=107-	=107-
4F\	2a/	[2aa\	8aa\L
!	!	!	!LO:TX:a:t=P:problem:♭ above
.	.	.	8bb-X\
4E\	.	.	8gg\
.	.	.	8aa\J
!LO:TX:t=P:problem:kreska pseudotaktowa	!	!	!
2D/	[2aa\	8aa\L]	8ff\L
.	.	8bb-X\	8gg\
.	.	8ggny\	8ee\
!	!	!LO:TX:t=P:problem:kreska pseudotaktowa	!LO:TX:t=P:problem:kreska pseudotaktowa
.	.	8aa\J	8ff\J
=108-	=108-	=108-	=108-
1D	8aa\L]	8ff\L	2dd\
.	8bb-X\	8gg\	.
.	8gg\	8ee\	.
.	8aa\J	8ff\J	.
.	8ff\L	2dd\	8aa\L
!	!	!	!LO:TX:a:t=P:problem:♭ above
.	8gg\	.	8bb-X\
.	8ee\	.	8gg\
!	!	!	!LO:TX:t=P:problem:kreska pseudotaktowa
.	8ff\J	.	8aa\J
=109-	=109-	=109-	=109-
0D	1.dd	8aa\L	8ff\L
!	!	!LO:SIC:v:o=8bbny\	!
.	.	8bb-	8gg\
.	.	8gg\	8ee\
.	.	8aa\J	8ff\J
.	.	2.ff\	2.dd\
.	.	.	.
=110-	=110-	=110-	=110-
.	.	.	.
.	.	4gg\	4ee\
.	4cc#X\	2aa\	2ff\
.	4b/	.	.
=111-	=111-	=111-	=111-
!LO:SIC:o=1AAl;;	!LO:SIC:o=1cc#Xl;;	!LO:SIC:o=1aal;;	!LO:SIC:o=1eel;
1AA;	1cc#;	1aa;	1ee;
==	==	==	==
*-	*-	*-	*-
!!!system-decoration: s1,s2,s3,s4
!!!RDF**kern: l = terminal long
!!!filter-modern: sic -sq | -shed -e "s/TX(.*):t=P:/tx$1:t=P:/LG" | shed -k -e "s/[<>]//g" | shed -e "s/^(\d+[\/\\]right)/$1yy/I;s/^(\d+[\/\\]left)/$1yy/I" | shed -k -e "s/#X/#/g" | shed -k -e "s/-X/-/g" | shed -k -e "s/n//g" | shed -k -e "s/LO:N:acc/LO:n:acc:/L" | shed -e "s/^custos:/Xcustos:/I" | shed -k -e "s/LO:N:vis/LO:n:vis:/L" | shed -e "s/:rj/:RJ/L" | shed -e "s/LO:DY:(a|b|rj)/LO:dy:$1/L" | shed -e "s/-//B" | modori -m | tie -s | autostem -r
!!!ENC: Filip Voros
!!!END: 2022-11-05
!!!EED: Jan Barakat
!!!EEV: 2022-11-16
!!!EST: revision finished 2022-11-29
!!!ENC-modern: Andrzej Borzym
!!!END-modern: 2022-12-06
